img/fb.svg

<svg viewBox="0 0 19 29" fill="none" xmlns="http://www.w3.org/2000/svg">
    <g clip-path="url(#clip0_805:273)">
        <path d="M18.0629 0.00602328L13.9999 0C9.43519 0 6.48528 2.79632 6.48528 7.12434V10.4091H2.4001C2.04709 10.4091 1.76123 10.6736 1.76123 10.9997V15.759C1.76123 16.0853 2.04742 16.3493 2.4001 16.3493H6.48528V28.3586C6.48528 28.6848 6.77115 28.9488 7.12416 28.9488H12.4542C12.8072 28.9488 13.093 28.6844 13.093 28.3586V16.3493H17.8696C18.2226 16.3493 18.5084 16.0853 18.5084 15.759L18.5104 10.9997C18.5104 10.8431 18.4429 10.6932 18.3233 10.5823C18.2037 10.4715 18.0407 10.4091 17.8712 10.4091H13.093V7.62458C13.093 6.28621 13.4382 5.60677 15.3252 5.60677L18.0622 5.60587C18.4149 5.60587 18.7008 5.34144 18.7008 5.01558V0.596305C18.7008 0.270747 18.4152 0.00662561 18.0629 0.00602328Z" fill="#FEFEFE" />
    </g>
    <defs>
        <clipPath id="clip0_805:273">
            <rect width="18.6335" height="29" fill="white" transform="translate(0.0673828)" />
        </clipPath>
    </defs>
</svg>

<svg viewBox="0 0 19 29" fill="none" xmlns="http://www.w3.org/2000/svg"><g clip-path="url(#a)"><path d="M18.063.006 14 0C9.435 0 6.485 2.796 6.485 7.124v3.285H2.4c-.353 0-.639.265-.639.59v4.76c0 .326.286.59.64.59h4.084v12.01c0 .326.286.59.64.59h5.33c.352 0 .638-.265.638-.59v-12.01h4.777c.353 0 .638-.264.638-.59l.002-4.76a.57.57 0 0 0-.187-.417.667.667 0 0 0-.452-.173h-4.778V7.625c0-1.339.345-2.018 2.232-2.018l2.737-.001c.353 0 .639-.265.639-.59V.596c0-.325-.286-.59-.638-.59Z" fill="#000"/></g><defs><clipPath id="a"><path fill="#fff" transform="translate(.067)" d="M0 0h18.634v29H0z"/></clipPath></defs></svg>
